neru-light-classic/32x32/apps/electrum.svg

<?xml version="1.0" encoding="UTF-8" standalone="no"?>
<svg
   xmlns:dc="http://purl.org/dc/elements/1.1/"
   xmlns:cc="http://creativecommons.org/ns#"
   xmlns:rdf="http://www.w3.org/1999/02/22-rdf-syntax-ns#"
   xmlns:svg="http://www.w3.org/2000/svg"
   xmlns="http://www.w3.org/2000/svg"
   xmlns:sodipodi="http://sodipodi.sourceforge.net/DTD/sodipodi-0.dtd"
   xmlns:inkscape="http://www.inkscape.org/namespaces/inkscape"
   width="32"
   version="1.1"
   height="32"
   viewBox="0 0 32 32"
   id="svg16"
   sodipodi:docname="electrum.svg"
   inkscape:version="0.92.1 r">
  <metadata
     id="metadata22">
    <rdf:RDF>
      <cc:Work
         rdf:about="">
        <dc:format>image/svg+xml</dc:format>
        <dc:type
           rdf:resource="http://purl.org/dc/dcmitype/StillImage" />
      </cc:Work>
    </rdf:RDF>
  </metadata>
  <defs
     id="defs20" />
  <sodipodi:namedview
     pagecolor="#ffffff"
     bordercolor="#666666"
     borderopacity="1"
     objecttolerance="10"
     gridtolerance="10"
     guidetolerance="10"
     inkscape:pageopacity="0"
     inkscape:pageshadow="2"
     inkscape:window-width="640"
     inkscape:window-height="480"
     id="namedview18"
     showgrid="false"
     inkscape:zoom="8.8125"
     inkscape:cx="-5.5602837"
     inkscape:cy="16"
     inkscape:current-layer="svg16" />
  <rect
     style="opacity:1;fill:#cccccc;fill-opacity:1;fill-rule:evenodd;stroke:none;stroke-width:1.03534329;stroke-linecap:round;stroke-linejoin:bevel;stroke-miterlimit:4;stroke-dasharray:none;stroke-dashoffset:0;stroke-opacity:1"
     id="rect4497-3"
     width="28.203388"
     height="28.203388"
     x="1.8983059"
     y="1.8983059"
     ry="5.575182" />
  <g
     id="g4509"
     transform="matrix(0.84210794,0,0,0.84153848,2.526273,2.53568)"
     style="stroke-width:1.18789792">
    <ellipse
       id="ellipse6"
       ry="7.5"
       rx="12.5"
       cy="16"
       cx="16"
       style="fill:none;stroke:#259cda;stroke-width:1.22470212" />
    <ellipse
       id="ellipse8"
       transform="rotate(60)"
       style="fill:none;stroke:#259cda;stroke-width:1.22470212"
       cx="21.856001"
       cy="-5.8559999"
       rx="12.5"
       ry="7.5" />
    <ellipse
       id="ellipse10"
       ry="7.5"
       rx="12.5"
       cy="21.856001"
       cx="5.8559999"
       style="fill:none;stroke:#259cda;stroke-width:1.22470212"
       transform="matrix(-0.5,0.8660254,0.8660254,0.5,0,0)" />
    <path
       id="path14"
       d="m 14,10 v 2 c -0.245847,0.01 -0.698089,0 -0.933593,0 H 12 v 1 c 0,0 0.359418,-0.015 0.345703,0 C 12.805832,12.993 12.95236,13.326067 13,13.548828 V 18.5 C 12.98236,18.640776 12.9974,18.99 12.675782,19 12.690632,19.013 12,19 12,19 v 1 h 1.126953 C 13.402055,19.99 13.734241,20 14,20 v 2 l 1,-0.01758 V 20 h 0.984375 l 0.03125,2 h 1 l -0.03125,-2 C 18.892187,19.861524 20,19.633628 20,17.5 20,16 18.999089,15.500955 17.816203,15.5 18.566521,15.44318 18.999459,15 18.999797,13.75 19,13 18.566521,12 17.999797,12 H 17 v -2 h -1 v 2 c -0.298624,-5e-6 -0.69683,-0.011 -1,0 v -2 z m 1,3 c 1.410185,0 2.000138,1.5e-5 2,1 1.38e-4,1.000066 -0.730627,1 -2,1 z m 0,3 c 2,7.5e-5 3.000208,2.3e-5 3,1.5 2.08e-4,1.500099 -1,1.5 -3,1.5 z"
       style="fill:#259cda;stroke-width:1.18789792"
       inkscape:connector-curvature="0" />
  </g>
</svg>

<svg xmlns="http://www.w3.org/2000/svg" width="32" height="32"><rect width="28.203" height="28.203" x="1.898" y="1.898" ry="5.575" fill="#ccc" fill-rule="evenodd"/><g transform="matrix(.8421 0 0 .84154 2.526 2.536)" stroke-width="1.188"><ellipse ry="7.5" rx="12.5" cy="16" cx="16" fill="none" stroke="#259cda" stroke-width="1.225"/><ellipse transform="rotate(60)" cx="21.856" cy="-5.856" rx="12.5" ry="7.5" fill="none" stroke="#259cda" stroke-width="1.225"/><ellipse ry="7.5" rx="12.5" cy="21.856" cx="5.856" transform="scale(-1 1) rotate(60)" fill="none" stroke="#259cda" stroke-width="1.225"/><path d="M14 10v2c-.246.01-.698 0-.934 0H12v1s.36-.015.346 0c.46-.007.606.326.654.549V18.5c-.018.14-.003.49-.324.5.015.013-.676 0-.676 0v1h1.127c.275-.01.607 0 .873 0v2l1-.018V20h.984l.032 2h1l-.032-2c1.908-.138 3.016-.366 3.016-2.5 0-1.5-1-1.999-2.184-2 .75-.057 1.183-.5 1.184-1.75C19 13 18.567 12 18 12h-1v-2h-1v2c-.299 0-.697-.011-1 0v-2zm1 3c1.41 0 2 0 2 1s-.73 1-2 1zm0 3c2 0 3 0 3 1.5S17 19 15 19z" fill="#259cda"/></g></svg>
